_includes/icons/ios-bar-chart.svg

<svg fill="#666" height="50" viewBox="0 0 50 50" width="50" xmlns="http://www.w3.org/2000/svg"><path d="m34 4v46h14v-46zm2 2h10v42h-10zm-34 11v33h14v-33zm2 2h10v29h-10zm14 9v22h14v-22zm2 2h10v18h-10z"/></svg>

<svg xmlns="http://www.w3.org/2000/svg" viewBox="0 0 50 50" width="50" height="50" fill="#666"><path d="M 34 4 L 34 50 L 48 50 L 48 4 Z M 36 6 L 46 6 L 46 48 L 36 48 Z M 2 17 L 2 50 L 16 50 L 16 17 Z M 4 19 L 14 19 L 14 48 L 4 48 Z M 18 28 L 18 50 L 32 50 L 32 28 Z M 20 30 L 30 30 L 30 48 L 20 48 Z"/></svg>
